( Made using CamBam - http://www.cambam.co.uk )
( a 12/28/2018 12:40:06 PM )
( T0 : 4.0 )
G21 G90 G64 G40
G0 Z3.0
( T0 : 4.0 )
T0 M6
( Profile1 )
G17
M3 S1000
G0 X16.95 Y12.0
G0 Z1.0
G1 F200.0 Z-5.0
G2 X7.65 Y6.6306 I-6.2 J0.0
G2 Y17.3694 I3.1 J5.3694
G2 X16.95 Y12.0 I3.1 J-5.3694
G0 Z3.0
G0 X27.05
G0 Z1.0
G1 Z-5.0
G2 X30.15 Y17.3694 I6.2 J0.0
G2 X39.45 Y12.0 I3.1 J-5.3694
G2 X30.15 Y6.6306 I-6.2 J0.0
G2 X27.05 Y12.0 I3.1 J5.3694
( Profile2 )
S1000
G0 Z3.0
G0 X21.3701 Y25.3411
G0 Z1.0
G1 Z-5.0
G3 X-0.2152 Y25.0589 I-10.6201 J-13.3411
G3 X-2.0 Y21.2297 I3.2152 J-3.8291
G1 Y3.0
G3 X3.0 Y-2.0 I5.0 J0.0
G1 X41.0
G3 X46.0 Y3.0 I0.0 J5.0
G1 Y21.2297
G3 X44.2152 Y25.0589 I-5.0 J0.0
G3 X22.6282 Y25.3397 I-10.9652 J-13.0589
G1 X22.6152 Y25.3295
G1 X22.6002 Y25.318
G1 X22.5868 Y25.3082
G1 X22.5732 Y25.2985
G1 X22.5595 Y25.289
G1 X22.5456 Y25.2798
G1 X22.5316 Y25.2709
G1 X22.5174 Y25.2621
G1 X22.5031 Y25.2536
G1 X22.4886 Y25.2454
G1 X22.474 Y25.2373
G1 X22.4592 Y25.2296
G1 X22.4444 Y25.222
G1 X22.4294 Y25.2147
G1 X22.4143 Y25.2077
G1 X22.399 Y25.2009
G1 X22.3837 Y25.1944
G1 X22.3683 Y25.1881
G1 X22.3527 Y25.1821
G1 X22.3371 Y25.1764
G1 X22.3213 Y25.1709
G1 X22.3055 Y25.1657
G1 X22.2896 Y25.1607
G1 X22.2736 Y25.156
G1 X22.2576 Y25.1516
G1 X22.2414 Y25.1474
G1 X22.2252 Y25.1435
G1 X22.2089 Y25.1399
G1 X22.1926 Y25.1366
G1 X22.1762 Y25.1335
G1 X22.1598 Y25.1307
G1 X22.1433 Y25.1282
G1 X22.1268 Y25.1259
G1 X22.1103 Y25.124
G1 X22.0937 Y25.1223
G1 X22.0771 Y25.1208
G1 X22.0605 Y25.1197
G1 X22.0438 Y25.1188
G1 X22.0272 Y25.1182
G1 X22.0105 Y25.1179
G1 X21.9938
G1 X21.9772 Y25.1181
G1 X21.9605 Y25.1186
G1 X21.9439 Y25.1194
G1 X21.9272 Y25.1205
G1 X21.9106 Y25.1219
G1 X21.894 Y25.1235
G1 X21.8775 Y25.1254
G1 X21.861 Y25.1276
G1 X21.8445 Y25.13
G1 X21.828 Y25.1328
G1 X21.8117 Y25.1358
G1 X21.7953 Y25.139
G1 X21.779 Y25.1426
G1 X21.7628 Y25.1464
G1 X21.7466 Y25.1505
G1 X21.7306 Y25.1548
G1 X21.7146 Y25.1595
G1 X21.6986 Y25.1644
G1 X21.6828 Y25.1695
G1 X21.667 Y25.1749
G1 X21.6513 Y25.1806
G1 X21.6358 Y25.1866
G1 X21.6203 Y25.1928
G1 X21.6049 Y25.1992
G1 X21.5897 Y25.2059
G1 X21.5745 Y25.2129
G1 X21.5595 Y25.2201
G1 X21.5446 Y25.2276
G1 X21.5299 Y25.2353
G1 X21.5152 Y25.2432
G1 X21.5007 Y25.2514
G1 X21.4863 Y25.2599
G1 X21.4721 Y25.2686
G1 X21.458 Y25.2775
G1 X21.4441 Y25.2866
G1 X21.4303 Y25.296
G1 X21.4167 Y25.3056
G1 X21.4033 Y25.3154
G1 X21.39 Y25.3255
G1 X21.3701 Y25.3411
G0 Z3.0
M5
M30
